X:675
T: Celia's Fancy
S: "Passing Time" (Jim & Mary Coogan & friends)
C: M.Coogan
L: 1/8
M: 4/4
Q: 325
R: reel
K: Ador
EA A2 cBAc | BAGB ABcd | ea a2 gedB | c2 Bc AGED |
EA A2 cBAc | dcAG ABcd | ea a2 gedB | AcBG A4 :|
efge a3b | agea gedB | cBcd eaae | dBGB AGED |
ea a2 ba a2 | agea gedB | cBcd eage | dBGB A4 :|
